public/avatar/hat/23.svg

<svg xmlns:xlink="http://www.w3.org/1999/xlink" height="92.9" width="100.7" xmlns="http://www.w3.org/2000/svg"><g transform="translate(38.65 49.75)"><use height="18.5" transform="translate(-12.4 2.6)" width="35" xlink:href="#a"/><use height="16.7" transform="translate(-14.4 -7.65)" width="26.85" xlink:href="#b"/></g><defs><g id="a"><path d="M11.4 6.65q1.8.3 3.05 1.5L15.6 9.2q.2 2.35-1.6 2.7.2 1.2 0 2-.65-2.75-2.2-4.65.7-1.4-.4-2.6" fill="#630" fill-rule="evenodd" transform="translate(12.4 -2.6)"/><path d="M8.25 6.6q1.25-.15 2.5 0h.3l.35.05q1.1 1.2.4 2.6-1.45-1.7-3.55-2.65m7.35 2.6 1.7 1.3 2.05 1.8q.3 2.1-2 2.4 1.25 1.9-1.8 1.5.05 1.05-.25 1.6l-.75-1.35-.15-.05-.4-2.5q.2-.8 0-2 1.8-.35 1.6-2.7" fill="#ffd355" fill-rule="evenodd" transform="translate(12.4 -2.6)"/><path d="m19.35 12.3.75.8.8 1.05.2.4.75 1.65q.5 1.6 0 2.75-1.35 1.8-3.5 1.65l-1.75-.3-.7-.25M11.15 4.1q-.05-.6.35-1M8.25 6.6q1.25-.15 2.5 0h.3l.35.05q1.8.3 3.05 1.5L15.6 9.2l1.7 1.3 2.05 1.8M-11.9 7.7v-.25" fill="none" stroke="#000" stroke-linecap="round" stroke-linejoin="round" transform="translate(12.4 -2.6)"/></g><g id="c"><path d="m12.2-3.15-1.05-.2-2.3-.1q-1.1 1.45-1.4 0-.45.95-1.5.8l-2.85-.2q-.45.7-1.6.15-1.2.6-2.3-.25-1.45 1.7-2.6.6l-2.3.15q-2 .65-3.1-.4-2.3 1.3-3.1-1.15-.5-1.2.75-2.2l.7-.5Q.25-9.15 11.2-6.6q1.4 2 1.2 3l-.2.45M-12.05.8q.8 2.2 2.6 1.2 1.5.7 1.9-.35.65 1.4 1.6.35.5.85 2.2.2l.65.15 2.45-.05 2.05.1q1.35.65 1.95-.35.85.85 2 0 .75 1.15 2.25 0L9.3 2q.05 1.4 1.05.2.55.3 1.1-.55.55.3 1.15-.3l-.15 1.05q.5 1.25-.25 1.65 1.3.95.15 2-.1.95-.8.7Q.5 9-10.95 6.75q-.45.3-.8-.2l-.3-.55q-.45-.6-.1-1.6-1.35-.55-.25-1.75-1.05-.65.35-1.85" fill="#630" fill-rule="evenodd" transform="translate(13.45 8.35)"/><path d="M-11.9-3.75q.8 2.45 3.1 1.15 1.1 1.05 3.1.4l2.3-.15q1.15 1.1 2.6-.6 1.1.85 2.3.25 1.15.55 1.6-.15l2.85.2q1.05.15 1.5-.8.3 1.45 1.4 0l2.3.1 1.05.2-.15.2q.85 1.55-.1 2 .6 1.25.65 2.3-.6.6-1.15.3-.55.85-1.1.55-1 1.2-1.05-.2l-1.7.05q-1.5 1.15-2.25 0-1.15.85-2 0-.6 1-1.95.35l-2.05-.1-2.45.05-.65-.15q-1.7.65-2.2-.2-.95 1.05-1.6-.35-.4 1.05-1.9.35-1.8 1-2.6-1.2-1.45-1-.6-2.25.1-1.35.75-2.3" fill="#ffd355" fill-rule="evenodd" transform="translate(13.45 8.35)"/><path d="m12.2-3.15.2-.45q.2-1-1.2-3-10.95-2.55-21.65.15l-.7.5q-1.25 1-.75 2.2-.65.95-.75 2.3-.85 1.25.6 2.25-1.4 1.2-.35 1.85-1.1 1.2.25 1.75-.35 1 .1 1.6l.3.55q.35.5.8.2Q.5 9 11.55 6.75q.7.25.8-.7 1.15-1.05-.15-2 .75-.4.25-1.65l.15-1.05q-.05-1.05-.65-2.3.95-.45.1-2l.15-.2Z" fill="none" stroke="#000" stroke-linecap="round" stroke-linejoin="round" transform="translate(13.45 8.35)"/></g><use height="16.7" width="26.85" xlink:href="#c" id="b"/></defs></svg>

<?xml version="1.0" encoding="UTF-8" standalone="no"?>
<svg xmlns:xlink="http://www.w3.org/1999/xlink" height="92.9px" width="100.7px" xmlns="http://www.w3.org/2000/svg">
  <g transform="matrix(1.0, 0.0, 0.0, 1.0, 38.65, 49.75)">
    <use height="18.5" transform="matrix(1.0, 0.0, 0.0, 1.0, -12.4, 2.6)" width="35.0" xlink:href="#shape0"/>
    <use height="16.7" transform="matrix(1.0, 0.0, 0.0, 1.0, -14.4, -7.65)" width="26.85" xlink:href="#sprite0"/>
  </g>
  <defs>
    <g id="shape0" transform="matrix(1.0, 0.0, 0.0, 1.0, 12.4, -2.6)">
      <path d="M11.4 6.65 Q13.2 6.95 14.45 8.15 L15.6 9.2 Q15.8 11.55 14.0 11.9 14.2 13.1 14.0 13.9 13.35 11.15 11.8 9.25 12.5 7.85 11.4 6.65" fill="#663300" fill-rule="evenodd" stroke="none"/>
      <path d="M8.25 6.6 Q9.5 6.45 10.75 6.6 L11.05 6.6 11.4 6.65 Q12.5 7.85 11.8 9.25 10.35 7.55 8.25 6.6 M15.6 9.2 L17.3 10.5 19.35 12.3 Q19.65 14.4 17.35 14.7 18.6 16.6 15.55 16.2 15.6 17.25 15.3 17.8 L14.55 16.45 14.4 16.4 14.0 13.9 Q14.2 13.1 14.0 11.9 15.8 11.55 15.6 9.2" fill="#ffd355" fill-rule="evenodd" stroke="none"/>
      <path d="M19.35 12.3 L20.1 13.1 20.9 14.15 21.1 14.55 21.85 16.2 Q22.35 17.8 21.85 18.95 20.5 20.75 18.35 20.6 L16.6 20.3 15.9 20.05 M11.15 4.1 Q11.1 3.5 11.5 3.1 M8.25 6.6 Q9.5 6.45 10.75 6.6 L11.05 6.6 11.4 6.65 Q13.2 6.95 14.45 8.15 L15.6 9.2 17.3 10.5 19.35 12.3 M-11.9 7.7 L-11.9 7.45" fill="none" stroke="#000000" stroke-linecap="round" stroke-linejoin="round" stroke-width="1.0"/>
    </g>
    <g id="sprite0" transform="matrix(1.0, 0.0, 0.0, 1.0, 13.45, 8.35)">
      <use height="16.7" transform="matrix(1.0, 0.0, 0.0, 1.0, -13.45, -8.35)" width="26.85" xlink:href="#shape1"/>
    </g>
    <g id="shape1" transform="matrix(1.0, 0.0, 0.0, 1.0, 13.45, 8.35)">
      <path d="M12.2 -3.15 L11.15 -3.35 8.85 -3.45 Q7.75 -2.0 7.45 -3.45 7.0 -2.5 5.95 -2.65 L3.1 -2.85 Q2.65 -2.15 1.5 -2.7 0.3 -2.1 -0.8 -2.95 -2.25 -1.25 -3.4 -2.35 L-5.7 -2.2 Q-7.7 -1.55 -8.8 -2.6 -11.1 -1.3 -11.9 -3.75 -12.4 -4.95 -11.15 -5.95 L-10.45 -6.45 Q0.25 -9.15 11.2 -6.6 12.6 -4.6 12.4 -3.6 L12.2 -3.15 M-12.05 0.8 Q-11.25 3.0 -9.45 2.0 -7.95 2.7 -7.55 1.65 -6.9 3.05 -5.95 2.0 -5.45 2.85 -3.75 2.2 L-3.1 2.35 -0.65 2.3 1.4 2.4 Q2.75 3.05 3.35 2.05 4.2 2.9 5.35 2.05 6.1 3.2 7.6 2.05 L9.3 2.0 Q9.35 3.4 10.35 2.2 10.9 2.5 11.45 1.65 12.0 1.95 12.6 1.35 L12.45 2.4 Q12.95 3.65 12.2 4.05 13.5 5.0 12.35 6.05 12.25 7.0 11.55 6.75 0.5 9.0 -10.95 6.75 -11.4 7.05 -11.75 6.55 L-12.05 6.0 Q-12.5 5.4 -12.15 4.4 -13.5 3.85 -12.4 2.65 -13.45 2.0 -12.05 0.8" fill="#663300" fill-rule="evenodd" stroke="none"/>
      <path d="M-11.9 -3.75 Q-11.1 -1.3 -8.8 -2.6 -7.7 -1.55 -5.7 -2.2 L-3.4 -2.35 Q-2.25 -1.25 -0.8 -2.95 0.3 -2.1 1.5 -2.7 2.65 -2.15 3.1 -2.85 L5.95 -2.65 Q7.0 -2.5 7.45 -3.45 7.75 -2.0 8.85 -3.45 L11.15 -3.35 12.2 -3.15 12.05 -2.95 Q12.9 -1.4 11.95 -0.95 12.55 0.3 12.6 1.35 12.0 1.95 11.45 1.65 10.9 2.5 10.35 2.2 9.35 3.4 9.3 2.0 L7.6 2.05 Q6.1 3.2 5.35 2.05 4.2 2.9 3.35 2.05 2.75 3.05 1.4 2.4 L-0.65 2.3 -3.1 2.35 -3.75 2.2 Q-5.45 2.85 -5.95 2.0 -6.9 3.05 -7.55 1.65 -7.95 2.7 -9.45 2.0 -11.25 3.0 -12.05 0.8 -13.5 -0.2 -12.65 -1.45 -12.55 -2.8 -11.9 -3.75" fill="#ffd355" fill-rule="evenodd" stroke="none"/>
      <path d="M12.2 -3.15 L12.4 -3.6 Q12.6 -4.6 11.2 -6.6 0.25 -9.15 -10.45 -6.45 L-11.15 -5.95 Q-12.4 -4.95 -11.9 -3.75 -12.55 -2.8 -12.65 -1.45 -13.5 -0.2 -12.05 0.8 -13.45 2.0 -12.4 2.65 -13.5 3.85 -12.15 4.4 -12.5 5.4 -12.05 6.0 L-11.75 6.55 Q-11.4 7.05 -10.95 6.75 0.5 9.0 11.55 6.75 12.25 7.0 12.35 6.05 13.5 5.0 12.2 4.05 12.95 3.65 12.45 2.4 L12.6 1.35 Q12.55 0.3 11.95 -0.95 12.9 -1.4 12.05 -2.95 L12.2 -3.15 Z" fill="none" stroke="#000000" stroke-linecap="round" stroke-linejoin="round" stroke-width="1.0"/>
    </g>
  </defs>
</svg>
